assets/home/warg.svg

<svg width="38" height="36" viewBox="0 0 38 36" fill="none" xmlns="http://www.w3.org/2000/svg">
<g clip-path="url(#clip0_46_142)">
<path d="M21.6526 35.8442C20.2153 35.8442 18.7781 35.8442 17.3407 35.8442C16.5323 35.6684 15.7239 35.4928 15.0052 35.3171C5.84254 32.8572 -0.0862478 23.5447 1.89002 14.4958C3.41712 7.46754 7.72898 2.72346 14.8255 0.614974C15.8137 0.351414 16.8917 0.175706 17.8798 0C18.9577 0 19.9458 0 21.0238 0C22.1916 0.26356 23.4492 0.439267 24.5272 0.79068C33.3305 3.42628 38.9001 12.6509 37.0135 21.4362C35.3967 28.816 30.8153 33.56 23.3595 35.5806C22.8204 35.6684 22.1916 35.7563 21.6526 35.8442ZM5.57304 21.1727C5.66288 21.1727 5.66288 21.2605 5.75271 21.2605C8.53744 14.5837 12.9391 9.75173 20.7544 8.78534C20.1256 7.99465 19.4967 7.29184 18.9577 6.58901C18.9577 6.50116 19.0476 6.50116 19.0476 6.41329C21.2933 7.11612 23.6289 7.81895 25.7848 8.52178C24.1679 10.1031 22.5509 11.6845 21.0238 13.178C21.0238 12.3874 21.0238 11.5088 21.0238 10.3667C20.1256 10.806 19.1374 11.1574 18.4187 11.6845C16.8917 12.7387 15.9035 14.2322 15.0951 15.8136C13.9272 18.2735 13.2984 20.9092 13.1188 23.6326C13.0289 24.5989 13.1188 25.6532 13.1188 26.6196C16.9815 26.6196 22.5509 22.6662 22.7307 19.6792C22.012 19.8548 21.2035 19.9427 20.3052 20.1185C21.7425 18.3613 23.0001 16.6921 24.4374 14.9351C25.6051 16.8678 26.6831 18.8006 27.7611 20.7334C27.6713 20.7334 27.6713 20.8212 27.5814 20.8212C26.773 20.4698 25.9645 20.1185 25.0662 19.767C26.0543 23.8082 25.7848 27.6738 24.3475 31.5394C24.7967 31.3637 25.0662 31.2758 25.3356 31.1C31.534 28.2888 34.8576 21.6119 33.4204 14.8472C31.8035 7.11612 24.078 2.19634 16.2628 3.9534C9.07642 5.62261 4.2256 12.7387 5.39339 19.9427C5.39339 20.2942 5.48322 20.7334 5.57304 21.1727Z" fill="#DCDCDC"/>
</g>
<defs>
<clipPath id="clip0_46_142">
<rect width="37.2" height="36" fill="white" transform="translate(0.399994)"/>
</clipPath>
</defs>
</svg>

<svg xmlns="http://www.w3.org/2000/svg" width="38" height="36" fill="none" xmlns:v="https://vecta.io/nano"><g clip-path="url(#A)"><path d="M21.653 35.844h-4.312l-2.335-.527C5.843 32.857-.086 23.545 1.89 14.496 3.417 7.468 7.729 2.723 14.826.615 15.814.351 16.892.176 17.88 0h3.144c1.168.264 2.425.439 3.503.791 8.803 2.636 14.373 11.86 12.486 20.646-1.617 7.38-6.198 12.124-13.654 14.144l-1.707.264zM5.573 21.173c.09 0 .09.088.18.088 2.785-6.677 7.186-11.509 15.002-12.475-.629-.791-1.258-1.493-1.797-2.196 0-.088.09-.088.09-.176l6.737 2.108-4.761 4.656v-2.811c-.898.439-1.886.791-2.605 1.318-1.527 1.054-2.515 2.548-3.324 4.129-1.168 2.46-1.797 5.096-1.976 7.819-.09.966 0 2.021 0 2.987 3.863 0 9.432-3.953 9.612-6.94-.719.176-1.527.263-2.425.439l4.132-5.183c1.168 1.933 2.246 3.865 3.324 5.798-.09 0-.09.088-.18.088l-2.515-1.054c.988 4.041.719 7.907-.719 11.772.449-.176.719-.264.988-.439 6.198-2.811 9.522-9.488 8.085-16.253-1.617-7.731-9.342-12.651-17.158-10.894C9.076 5.623 4.226 12.739 5.393 19.943c0 .352.09.791.18 1.23z" fill="#dcdcdc"/></g><defs><clipPath id="A"><path fill="#fff" transform="translate(.4)" d="M0 0h37.2v36H0z"/></clipPath></defs></svg>
